apps/spreadsheeteditor/mobile/resources/icons/common/icon-sort.svg

<svg width="24" height="24" viewBox="0 0 24 24" xmlns="http://www.w3.org/2000/svg">
<path fill-rule="evenodd" clip-rule="evenodd" d="M16.7674 2.46191C17.1814 2.46203 17.5173 2.7979 17.5174 3.21191L17.5164 18.4854L19.8983 16.1045C20.1911 15.8122 20.6661 15.812 20.9588 16.1045C21.2517 16.3974 21.2517 16.8731 20.9588 17.166L17.2967 20.8262C17.0038 21.119 16.529 21.1191 16.2362 20.8262L12.576 17.166C12.2834 16.8731 12.2832 16.3973 12.576 16.1045C12.8688 15.8121 13.3437 15.8122 13.6365 16.1045L16.0164 18.4844L16.0174 3.21191C16.0176 2.79789 16.3534 2.46199 16.7674 2.46191Z" fill="#444444"/>
<path fill-rule="evenodd" clip-rule="evenodd" d="M2.49998 5.7959C2.29779 5.79592 2.11546 5.9177 2.03806 6.10449C1.96068 6.29132 2.00348 6.50642 2.14646 6.64941L5.97849 10.4814C6.07222 10.5752 6.12494 10.7024 6.12498 10.835V15.9209C6.12499 16.0941 6.21495 16.2546 6.36228 16.3457C6.50967 16.4368 6.69363 16.4456 6.84861 16.3682L9.04588 15.2695C9.55402 15.0154 9.87498 14.4959 9.87498 13.9277V10.835C9.87501 10.7024 9.92772 10.5752 10.0215 10.4814L13.8535 6.64941C13.9965 6.50642 14.0393 6.29132 13.9619 6.10449C13.8845 5.9177 13.7022 5.79591 13.5 5.7959H2.49998Z" fill="#444444"/>
</svg>

<svg xmlns="http://www.w3.org/2000/svg" width="24" height="24" fill="none" viewBox="0 0 24 24">
  <path stroke="#444" stroke-linecap="round" stroke-linejoin="round" stroke-width="1.5" d="M16.767 3.212v17.084m0 0 3.661-3.66m-3.661 3.66-3.66-3.66"/>
  <path fill="#444" d="M2.5 5.796a.5.5 0 0 0-.354.853l3.833 3.832a.5.5 0 0 1 .146.354v5.086a.5.5 0 0 0 .724.447l2.197-1.098a1.5 1.5 0 0 0 .829-1.342v-3.093a.5.5 0 0 1 .146-.354l3.832-3.832a.5.5 0 0 0-.353-.853h-11Z"/>
</svg>
